Suru++-Ubuntu/apps/symbolic/muondiscover-symbolic.svg

<svg width="16" height="16" version="1.1" xmlns="http://www.w3.org/2000/svg">
 <path d="m4.2499981 0.49999993c-0.5193714 0-0.9374967 0.41812913-0.9374967 0.93751177 0 0.5193827 0.4181253 0.9375118 0.9374967 0.9375118 0.5193751 0 0.9375042-0.4181291 0.9375042-0.9375118 0-0.51938264-0.4181291-0.93751177-0.9375042-0.93751177m6.5625029 0-1.8750007 1.8750236 2.8125017 2.8124976-2.8125017 2.8124976 1.8750007 1.8749858 4.687499-4.6874834zm-8.9062522 5.6249952c-0.7790626 0-1.4062488 0.6272126-1.4062488 1.4062866 0 0.7790362 0.6271862 1.406211 1.4062488 1.406211 0.7790627 0 1.4062526-0.6271748 1.4062526-1.406211 0-0.779074-0.6271899-1.4062866-1.4062526-1.4062866m4.2187502 5.6250329c-1.0387503 0-1.8750009 0.836221-1.8750009 1.874986s0.8362506 1.874986 1.8750009 1.874986c1.0387502 0 1.8750009-0.836221 1.8750009-1.874986s-0.8362507-1.874986-1.8750009-1.874986" style="fill:#808080"/>
</svg>

<svg xmlns="http://www.w3.org/2000/svg" width="16" height="16" version="1.1">
 <path style="fill:#808080" d="m 4.2499981,0.49999993 c -0.5193714,0 -0.9374967,0.41812913 -0.9374967,0.93751177 0,0.5193827 0.4181253,0.9375118 0.9374967,0.9375118 0.5193751,0 0.9375042,-0.4181291 0.9375042,-0.9375118 0,-0.51938264 -0.4181291,-0.93751177 -0.9375042,-0.93751177 m 6.5625029,0 L 8.9375003,2.3750235 11.750002,5.1875211 8.9375003,8.0000187 10.812501,9.8750045 15.5,5.1875211 Z M 1.9062488,6.1249951 C 1.1271862,6.1249951 0.5,6.7522077 0.5,7.5312817 c 0,0.7790362 0.6271862,1.406211 1.4062488,1.406211 0.7790627,0 1.4062526,-0.6271748 1.4062526,-1.406211 0,-0.779074 -0.6271899,-1.4062866 -1.4062526,-1.4062866 M 6.124999,11.750028 c -1.0387503,0 -1.8750009,0.836221 -1.8750009,1.874986 0,1.038765 0.8362506,1.874986 1.8750009,1.874986 1.0387502,0 1.8750009,-0.836221 1.8750009,-1.874986 0,-1.038765 -0.8362507,-1.874986 -1.8750009,-1.874986"/>
</svg>
